X:719
T:The lark in the morning
R:Jig
O:Ireland
B:Fiddler's Fakebook
B:Ceol Rince 1 n27
S:My arrangement from various sources
Z:Transcription, arrangement, chords:Mike Long
M:6/8
L:1/8
K:G
B\
|:"D"AFA AFA|"G"BGB BdB|"D"AFA Ade|"A"fed "G"BdB|\
"D"AFA AFA|"G"BGB BGB|"D"def "A"afe|"G"fdB BdB:|
|:"D"def a2a|"G"baf "D"afe|"D"def afe|"A"fdB B2A|\
"D"def a2a|"G"baf "D"a2f|"G"gbg faf|"A"edB B2A :|
|:"D"def fef|fef fef|def fef|"A"edB B2A|\
"D"def fef|fef fef|"G"gbg "D"faf|"A"edB B2A :|
|:"D"Add fdd|"A"edd "D"fdB|"D"Add fdd|"A"efe "G"edB|\
"D"Add fdd|"A"edd "D"fdd|"D"faf "G"gfe|"A"fdB BAB :|
